;FLAVOR:Marlin
;TIME:7192
;Filament used: 3.80404m
;Layer height: 0.2
;MINX:107.884
;MINY:133.2
;MINZ:0.1
;MAXX:193.351
;MAXY:166.738
;MAXZ:53.3
;Generated with Cura_SteamEngine 5.3.0
M140 S70
M105
M190 S70
M104 S215
M105
M109 S215
M82 ;absolute extrusion mode
M201 X500.00 Y500.00 Z100.00 E5000.00 ;Setup machine max acceleration
M203 X500.00 Y500.00 Z10.00 E50.00 ;Setup machine max feedrate
M204 P500.00 R1000.00 T500.00 ;Setup Print/Retract/Travel acceleration
M205 X8.00 Y8.00 Z0.40 E5.00 ;Setup Jerk
M220 S100 ;Reset Feedrate
M221 S100 ;Reset Flowrate

G28 ;Home
G29 ;Auto bed Level
M420 S1 ;Save and use mesh

G92 E0 ;Reset Extruder
G1 Z2.0 F3000 ;Move Z Axis up
G1 X10.1 Y20 Z0.28 F5000.0 ;Move to start position
G1 X10.1 Y200.0 Z0.28 F1500.0 E15 ;Draw the first line
G1 X10.4 Y200.0 Z0.28 F5000.0 ;Move to side a little
G1 X10.4 Y20 Z0.28 F1500.0 E30 ;Draw the second line
G92 E0 ;Reset Extruder
G1 Z2.0 F3000 ;Move Z Axis up

G92 E0
G92 E0
G1 F2700 E-5
;LAYER_COUNT:267
;LAYER:0
M107
G0 F6000 X116.701 Y134.75 Z0.1
;TYPE:SKIRT
G1 F2700 E0
G1 F1200 X115.124 Y136.222 E0.03588
G1 X114.414 Y137.598 E0.06162
G1 X114.175 Y137.685 E0.06585
G1 X111.92 Y139.006 E0.10932
G1 X110.07 Y141.123 E0.15607
G1 X109.666 Y141.962 E0.17156
G1 X109.413 Y142.193 E0.17725
G1 X108.348 Y144.257 E0.21588
G1 X107.884 Y146.147 E0.24824
G1 X107.884 Y149.646 E0.30643
G1 X108.323 Y151.844 E0.34371
G1 X109.346 Y153.563 E0.37697
G1 X109.52 Y153.782 E0.38162
G1 X109.621 Y154.079 E0.38684
G1 X110.664 Y155.611 E0.41766
G1 X112.35 Y157.3 E0.45735
G1 X114.125 Y158.28 E0.49107
G1 X116.442 Y159 E0.53142
G1 X120.199 Y158.995 E0.5939
G1 X120.321 Y159.259 E0.59873
G1 X120.579 Y160.283 E0.61629
G1 X121.679 Y162.469 E0.65699
G1 X122.787 Y163.759 E0.68527
G1 X124.744 Y165.351 E0.72722
G1 X125.785 Y165.817 E0.74619
G1 X128.179 Y166.588 E0.78802
G1 X130.757 Y166.529 E0.8309
G1 X131.252 Y166.463 E0.83921
G1 X131.601 Y166.446 E0.84502
G1 X133.949 Y166.096 E0.8845
G1 X136.667 Y164.665 E0.93558
G1 X138.086 Y163.266 E0.96872
G1 X139.471 Y161.233 E1.00963
G1 X139.929 Y159.92 E1.03275
G1 X140.019 Y159.569 E1.03878
G1 X140.442 Y158.76 E1.05396
G1 X140.837 Y157.156 E1.08143
G1 X142.112 Y158.246 E1.10933
G1 X144.923 Y159.503 E1.16053
G1 X146.611 Y159.796 E1.18903
G1 X150.08 Y159.796 E1.24671
G1 X153.268 Y158.597 E1.30336
G1 X154.642 Y157.646 E1.33115
G1 X155.612 Y156.8 E1.35255
G1 X170.076 Y156.802 E1.59309
G1 X170.318 Y158.033 E1.61395
G1 X171.275 Y161.01 E1.66595
G1 X172.679 Y162.948 E1.70575
G1 X173.687 Y164.054 E1.73064
G1 X176.101 Y165.587 E1.77819
G1 X177.63 Y165.914 E1.8042
G1 X178.251 Y166.077 E1.81487
G1 X178.99 Y166.303 E1.82772
G1 X181.147 Y166.738 E1.86432
G1 X182.331 Y166.738 E1.88401
G1 X184.112 Y166.389 E1.91419
G1 X187.109 Y165.444 E1.96645
G1 X188.899 Y164.662 E1.99893
G1 X190.901 Y162.855 E2.04378
G1 X192.296 Y160.572 E2.08828
G1 X193.148 Y157.884 E2.13517
G1 X193.351 Y155.566 E2.17387
G1 X193.046 Y154.014 E2.20017
G1 X192.432 Y152.116 E2.23334
G1 X191.812 Y151.084 E2.25336
G1 X192.116 Y149.864 E2.27427
G1 X192.116 Y146.353 E2.33266
G1 X191.678 Y144.166 E2.36975
G1 X190.566 Y142.294 E2.40596
G1 X189.092 Y140.719 E2.44184
G1 X187.065 Y139.666 E2.47982
G1 X185.169 Y139.2 E2.51229
G1 X182.929 Y139.2 E2.54954
G1 X182.722 Y138.166 E2.56708
G1 X181.609 Y136.294 E2.6033
G1 X180.135 Y134.719 E2.63917
G1 X178.108 Y133.666 E2.67716
G1 X176.212 Y133.2 E2.70963
G1 X171.081 Y133.2 E2.79496
G1 X168.894 Y133.638 E2.83205
G1 X167.022 Y134.75 E2.86826
G1 X165.447 Y136.224 E2.90413
G1 X164.393 Y138.252 E2.94214
G1 X164.16 Y139.2 E2.95838
G1 X162.609 Y139.2 E2.98417
G1 X162.402 Y138.166 E3.00171
G1 X161.289 Y136.294 E3.03792
G1 X159.815 Y134.719 E3.0738
G1 X157.788 Y133.666 E3.11178
G1 X155.892 Y133.2 E3.14425
G1 X150.723 Y133.2 E3.23021
G1 X148.626 Y133.604 E3.26573
G1 X148.181 Y133.87 E3.27435
G1 X147.785 Y133.665 E3.28177
G1 X145.893 Y133.2 E3.31417
G1 X140.761 Y133.2 E3.39951
G1 X138.574 Y133.638 E3.4366
G1 X136.702 Y134.75 E3.47281
G1 X135.127 Y136.224 E3.50869
G1 X134.074 Y138.251 E3.54667
G1 X133.841 Y139.2 E3.56292
G1 X132.609 Y139.2 E3.58341
G1 X132.402 Y138.166 E3.60095
G1 X131.289 Y136.294 E3.63717
G1 X129.815 Y134.719 E3.67304
G1 X127.788 Y133.666 E3.71103
G1 X125.892 Y133.2 E3.7435
G1 X120.76 Y133.2 E3.82884
G1 X118.573 Y133.638 E3.86593
G1 X116.701 Y134.75 E3.90214
G0 F6000 X116.942 Y135.072
G1 F1200 X115.447 Y136.468 E3.93616
G1 X114.693 Y137.929 E3.9635
G1 X114.377 Y138.03 E3.96902
G1 X112.178 Y139.318 E4.0114
G1 X110.407 Y141.345 E4.05616
G1 X109.993 Y142.205 E4.07203
G1 X109.735 Y142.441 E4.07785
G1 X108.725 Y144.398 E4.11447
G1 X108.284 Y146.193 E4.14521
G1 X108.284 Y149.608 E4.202
G1 X108.701 Y151.696 E4.23741
G1 X109.69 Y153.358 E4.26957
G1 X109.876 Y153.585 E4.27445
G1 X109.982 Y153.898 E4.27995
G1 X110.974 Y155.355 E4.30926
G1 X112.595 Y156.978 E4.34741
G1 X114.281 Y157.909 E4.37944
G1 X116.503 Y158.6 E4.41814
G1 X120.479 Y158.595 E4.48426
G1 X120.577 Y158.863 E4.489
G1 X120.7 Y159.125 E4.49382
G1 X120.957 Y160.144 E4.51129
G1 X122.014 Y162.245 E4.55041
G1 X123.069 Y163.473 E4.57733
G1 X124.953 Y165.006 E4.61772
G1 X125.908 Y165.436 E4.63514
G1 X128.238 Y166.186 E4.67585
G1 X130.704 Y166.132 E4.71686
G1 X131.215 Y166.064 E4.72544
G1 X131.581 Y166.046 E4.73153
G1 X133.824 Y165.71 E4.76925
G1 X136.427 Y164.339 E4.81817
G1 X137.777 Y163.008 E4.8497
G1 X139.11 Y161.052 E4.88907
G1 X139.551 Y159.788 E4.91133
G1 X139.643 Y159.425 E4.91756
G1 X140.066 Y158.615 E4.93275
G1 X140.511 Y156.806 E4.96373
G1 X140.511 Y156.4 E4.97049
G1 X140.568 Y156.4 E4.97143
G1 X142.329 Y157.905 E5.00996
G1 X145.04 Y159.117 E5.05934
G1 X146.645 Y159.396 E5.08643
G1 X150.008 Y159.396 E5.14236
G1 X153.079 Y158.241 E5.19692
G1 X154.414 Y157.317 E5.22392
G1 X155.462 Y156.4 E5.24708
G1 X170.406 Y156.402 E5.4956
G1 X170.711 Y157.956 E5.52194
G1 X171.637 Y160.829 E5.57214
G1 X172.975 Y162.678 E5.61009
G1 X173.949 Y163.746 E5.63413
G1 X176.255 Y165.211 E5.67956
G1 X177.723 Y165.525 E5.70453
G1 X178.368 Y165.694 E5.71562
G1 X179.107 Y165.92 E5.72847
G1 X181.186 Y166.338 E5.76373
G1 X182.29 Y166.338 E5.78209
G1 X184.035 Y165.996 E5.81166
G1 X186.949 Y165.077 E5.86248
G1 X188.68 Y164.321 E5.89389
G1 X190.59 Y162.597 E5.93668
G1 X191.93 Y160.404 E5.97942
G1 X192.754 Y157.804 E6.02478
G1 X192.948 Y155.59 E6.06174
G1 X192.665 Y154.137 E6.08635
G1 X192.065 Y152.282 E6.11878
G1 X191.384 Y151.148 E6.14077
G1 X191.716 Y149.815 E6.16362
G1 X191.716 Y146.391 E6.22056
G1 X191.3 Y144.312 E6.25582
G1 X190.244 Y142.535 E6.29019
G1 X188.847 Y141.042 E6.3242
G1 X186.922 Y140.042 E6.36027
G1 X185.123 Y139.6 E6.39108
G1 X182.601 Y139.6 E6.43302
G1 X182.343 Y138.312 E6.45487
G1 X181.287 Y136.535 E6.48924
G1 X179.89 Y135.042 E6.52324
G1 X177.965 Y134.042 E6.55932
G1 X176.166 Y133.6 E6.59013
G1 X171.119 Y133.6 E6.67406
G1 X169.04 Y134.016 E6.70932
G1 X167.263 Y135.072 E6.74369
G1 X165.77 Y136.469 E6.7777
G1 X164.769 Y138.395 E6.81379
G1 X164.473 Y139.6 E6.83443
G1 X162.281 Y139.6 E6.87088
G1 X162.023 Y138.312 E6.89273
G1 X160.967 Y136.535 E6.9271
G1 X159.57 Y135.042 E6.96111
G1 X157.645 Y134.042 E6.99718
G1 X155.846 Y133.6 E7.02799
G1 X150.763 Y133.6 E7.11252
G1 X148.771 Y133.984 E7.14625
G1 X148.195 Y134.327 E7.1574
G1 X147.643 Y134.042 E7.16773
G1 X145.846 Y133.6 E7.19851
G1 X140.799 Y133.6 E7.28244
G1 X138.72 Y134.016 E7.3177
G1 X136.943 Y135.072 E7.35208
G1 X135.45 Y136.469 E7.38608
G1 X134.45 Y138.394 E7.42215
G1 X134.154 Y139.6 E7.44281
G1 X132.281 Y139.6 E7.47395
G1 X132.023 Y138.312 E7.4958
G1 X130.967 Y136.535 E7.53017
G1 X129.57 Y135.042 E7.56418
G1 X127.645 Y134.042 E7.60025
G1 X125.846 Y133.6 E7.63106
G1 X120.798 Y133.6 E7.71501
G1 X118.719 Y134.016 E7.75027
G1 X116.942 Y135.072 E7.78464
G0 F6000 X117.183 Y135.394
G1 F1200 X118.865 Y134.395 E7.81718
G1 X120.837 Y134 E7.85062
G1 X125.799 Y134 E7.93314
G1 X127.503 Y134.419 E7.96232
G1 X129.325 Y135.365 E7.99646
G1 X130.645 Y136.776 E8.0286
G1 X131.644 Y138.458 E8.06113
G1 X131.953 Y140 E8.08728
G1 X134.467 Y140 E8.12909
G1 X134.827 Y138.536 E8.15416
G1 X135.773 Y136.714 E8.1883
G1 X137.184 Y135.394 E8.22043
G1 X138.866 Y134.395 E8.25297
G1 X140.838 Y134 E8.28641
G1 X145.799 Y134 E8.36892
G1 X147.503 Y134.419 E8.3981
G1 X148.21 Y134.784 E8.41133
G1 X148.916 Y134.364 E8.42499
G1 X150.803 Y134 E8.45695
G1 X155.799 Y134 E8.54003
G1 X157.503 Y134.419 E8.56922
G1 X159.325 Y135.365 E8.60336
G1 X160.645 Y136.776 E8.63549
G1 X161.644 Y138.458 E8.66802
G1 X161.953 Y140 E8.69418
G1 X164.786 Y140 E8.74129
G1 X165.146 Y138.537 E8.76634
G1 X166.093 Y136.714 E8.80051
G1 X167.504 Y135.394 E8.83264
G1 X169.186 Y134.395 E8.86517
G1 X171.158 Y134 E8.89862
G1 X176.119 Y134 E8.98112
G1 X177.823 Y134.419 E9.0103
G1 X179.645 Y135.365 E9.04444
G1 X180.965 Y136.776 E9.07658
G1 X181.964 Y138.458 E9.10911
G1 X182.273 Y140 E9.13526
G1 X185.076 Y140 E9.18188
G1 X186.78 Y140.419 E9.21106
G1 X188.602 Y141.365 E9.2452
G1 X189.922 Y142.776 E9.27733
G1 X190.921 Y144.458 E9.30986
G1 X191.316 Y146.43 E9.34331
G1 X191.316 Y149.766 E9.39879
G1 X190.95 Y151.234 E9.42395
G1 X191.103 Y151.457 E9.42845
G1 X191.7 Y152.451 E9.44773
G1 X192.272 Y154.214 E9.47855
G1 X192.545 Y155.615 E9.50229
G1 X192.36 Y157.724 E9.5375
G1 X191.564 Y160.236 E9.58132
G1 X190.279 Y162.339 E9.6223
G1 X188.461 Y163.98 E9.66303
G1 X186.789 Y164.71 E9.69337
G1 X183.958 Y165.603 E9.74274
G1 X182.249 Y165.938 E9.7717
G1 X181.225 Y165.938 E9.78873
G1 X179.224 Y165.537 E9.82267
G1 X178.485 Y165.311 E9.83552
G1 X177.822 Y165.137 E9.84692
G1 X176.409 Y164.835 E9.87095
G1 X174.208 Y163.437 E9.91431
G1 X173.271 Y162.409 E9.93744
G1 X171.999 Y160.648 E9.97357
G1 X171.092 Y157.833 E10.02275
G1 X170.801 Y156.364 E10.04766
G1 X170.823 Y156.002 E10.05369
G1 X155.311 Y156 E10.31165
G1 X154.186 Y156.988 E10.33655
G1 X152.89 Y157.885 E10.36276
G1 X149.936 Y158.996 E10.41525
G1 X146.68 Y158.996 E10.4694
G1 X145.157 Y158.731 E10.4951
G1 X142.546 Y157.564 E10.54266
G1 X140.716 Y156 E10.5827
G1 X140.111 Y156 E10.59276
G1 X140.111 Y156.76 E10.6054
G1 X139.69 Y158.473 E10.63473
G1 X139.266 Y159.284 E10.64995
G1 X139.173 Y159.656 E10.65633
G1 X138.748 Y160.874 E10.67778
G1 X137.471 Y162.747 E10.71548
G1 X136.187 Y164.013 E10.74547
G1 X133.699 Y165.324 E10.79224
G1 X131.561 Y165.646 E10.82819
G1 X131.178 Y165.665 E10.83457
G1 X130.651 Y165.735 E10.84341
G1 X128.296 Y165.785 E10.88258
G1 X126.072 Y165.071 E10.92143
G1 X125.163 Y164.662 E10.938
G1 X123.354 Y163.19 E10.97679
G1 X122.348 Y162.018 E11.00247
G1 X121.335 Y160.005 E11.03995
G1 X121.079 Y158.99 E11.05736
G1 X120.953 Y158.726 E11.06222
G1 X120.729 Y158.113 E11.07308
G1 X120.417 Y158.195 E11.07844
G1 X116.564 Y158.2 E11.14252
G1 X114.437 Y157.538 E11.17956
G1 X112.839 Y156.656 E11.20992
G1 X111.284 Y155.099 E11.24651
G1 X110.343 Y153.717 E11.27432
G1 X110.231 Y153.386 E11.28013
G1 X110.034 Y153.153 E11.2852
G1 X109.079 Y151.548 E11.31626
G1 X108.684 Y149.57 E11.3498
G1 X108.684 Y146.239 E11.4052
G1 X109.101 Y144.541 E11.43428
G1 X110.058 Y142.688 E11.46896
G1 X110.319 Y142.449 E11.47484
G1 X110.743 Y141.568 E11.4911
G1 X112.436 Y139.63 E11.5339
G1 X114.54 Y138.398 E11.57444
G1 X114.972 Y138.26 E11.58199
G1 X115.77 Y136.714 E11.61092
G1 X117.183 Y135.394 E11.64308
G0 F6000 X117.424 Y135.716
G1 F1200 X116.094 Y136.959 E11.67335
G1 X115.251 Y138.591 E11.7039
G1 X114.703 Y138.766 E11.71346
G1 X112.694 Y139.942 E11.75218
G1 X111.079 Y141.791 E11.793
G1 X110.645 Y142.693 E11.80965
G1 X110.379 Y142.936 E11.81564
G1 X109.478 Y144.682 E11.84832
G1 X109.084 Y146.285 E11.87577
G1 X109.084 Y149.532 E11.92977
G1 X109.457 Y151.4 E11.96144
G1 X110.378 Y152.948 E11.9914
G1 X110.584 Y153.181 E11.99657
G1 X110.704 Y153.536 E12.0028
G1 X111.594 Y154.843 E12.0291
G1 X113.083 Y156.334 E12.06414
G1 X114.593 Y157.167 E12.09282
G1 X116.625 Y157.8 E12.12821
G1 X120.364 Y157.795 E12.19039
G1 X120.98 Y157.633 E12.20099
G1 X121.329 Y158.589 E12.21791
G1 X121.458 Y158.857 E12.22286
G1 X121.713 Y159.866 E12.24016
G1 X122.683 Y161.794 E12.27606
G1 X123.636 Y162.905 E12.3004
G1 X125.373 Y164.318 E12.33764
G1 X126.236 Y164.706 E12.35337
G1 X128.354 Y165.384 E12.39035
G1 X130.598 Y165.338 E12.42768
G1 X131.141 Y165.266 E12.43679
G1 X131.501 Y165.25 E12.44278
G1 X133.573 Y164.938 E12.47763
G1 X135.948 Y163.686 E12.52228
G1 X137.165 Y162.486 E12.5507
G1 X138.386 Y160.696 E12.58673
G1 X138.795 Y159.524 E12.60738
G1 X138.889 Y159.143 E12.6139
G1 X139.314 Y158.331 E12.62914
G1 X139.711 Y156.714 E12.65683
G1 X139.711 Y155.6 E12.67536
G1 X140.864 Y155.6 E12.69453
G1 X142.763 Y157.223 E12.73608
G1 X145.274 Y158.346 E12.78182
G1 X146.713 Y158.596 E12.80611
G1 X149.864 Y158.596 E12.85851
G1 X152.701 Y157.529 E12.90892
G1 X153.958 Y156.659 E12.93434
G1 X155.159 Y155.6 E12.96097
G1 X171.247 Y155.602 E13.22851
G1 X171.203 Y156.338 E13.24077
G1 X171.473 Y157.71 E13.26403
G1 X172.361 Y160.467 E13.3122
G1 X173.567 Y162.14 E13.34649
G1 X174.467 Y163.128 E13.36872
G1 X176.563 Y164.459 E13.41001
G1 X177.915 Y164.748 E13.433
G1 X178.602 Y164.928 E13.44481
G1 X179.341 Y165.154 E13.45766
G1 X181.263 Y165.538 E13.49026
G1 X182.208 Y165.538 E13.50597
G1 X183.881 Y165.21 E13.53433
G1 X186.629 Y164.343 E13.58225
G1 X188.242 Y163.639 E13.61151
G1 X189.968 Y162.081 E13.65018
G1 X191.198 Y160.068 E13.68941
G1 X191.966 Y157.644 E13.7317
G1 X192.142 Y155.64 E13.76515
G1 X191.879 Y154.291 E13.78801
G1 X191.334 Y152.619 E13.81725
G1 X190.76 Y151.663 E13.8358
G1 X190.547 Y151.354 E13.84204
G1 X190.575 Y151.085 E13.84654
G1 X190.916 Y149.717 E13.86998
G1 X190.916 Y146.468 E13.92401
G1 X190.543 Y144.604 E13.95563
G1 X189.6 Y143.017 E13.98633
G1 X188.357 Y141.688 E14.01659
G1 X186.637 Y140.795 E14.04882
G1 X185.03 Y140.4 E14.07634
G1 X181.945 Y140.4 E14.12764
G1 X181.586 Y138.604 E14.1581
G1 X180.643 Y137.017 E14.1888
G1 X179.4 Y135.688 E14.21906
G1 X177.68 Y134.795 E14.25129
G1 X176.073 Y134.4 E14.27881
G1 X171.196 Y134.4 E14.35992
G1 X169.332 Y134.773 E14.39153
G1 X167.745 Y135.716 E14.42223
G1 X166.416 Y136.959 E14.45249
G1 X165.523 Y138.679 E14.48472
G1 X165.14 Y140.236 E14.51138
G1 X165.128 Y140.4 E14.51412
G1 X161.625 Y140.4 E14.57237
G1 X161.266 Y138.604 E14.60283
G1 X160.323 Y137.017 E14.63353
G1 X159.08 Y135.688 E14.66379
G1 X157.36 Y134.795 E14.69602
G1 X155.753 Y134.4 E14.72354
G1 X150.843 Y134.4 E14.8052
G1 X149.061 Y134.744 E14.83538
G1 X148.224 Y135.242 E14.85157
G1 X147.36 Y134.795 E14.86775
G1 X145.753 Y134.4 E14.89527
G1 X140.876 Y134.4 E14.97638
G1 X139.012 Y134.773 E15.00799
G1 X137.425 Y135.716 E15.03869
G1 X136.096 Y136.959 E15.06895
G1 X135.203 Y138.679 E15.10118
G1 X134.82 Y140.237 E15.12786
G1 X134.808 Y140.4 E15.13058
G1 X131.625 Y140.4 E15.18351
G1 X131.266 Y138.604 E15.21397
G1 X130.323 Y137.017 E15.24467
G1 X129.08 Y135.688 E15.27493
G1 X127.36 Y134.795 E15.30716
G1 X125.753 Y134.4 E15.33468
G1 X120.875 Y134.4 E15.4158
G1 X119.011 Y134.773 E15.44742
G1 X117.424 Y135.716 E15.47812
G0 F6000 X117.665 Y136.038
G1 F1200 X119.157 Y135.151 E15.50698
G1 X120.913 Y134.8 E15.53676
G1 X125.707 Y134.8 E15.61649
G1 X127.217 Y135.171 E15.64234
G1 X128.835 Y136.011 E15.67266
G1 X130.001 Y137.258 E15.70105
G1 X130.888 Y138.75 E15.72992
G1 X131.239 Y140.506 E15.7597
G1 X131.239 Y140.8 E15.76459
G1 X135.208 Y140.8 E15.83059
G1 X135.208 Y140.332 E15.83838
G1 X135.579 Y138.822 E15.86423
G1 X136.419 Y137.204 E15.89455
G1 X137.666 Y136.038 E15.92294
G1 X139.158 Y135.151 E15.95181
G1 X140.914 Y134.8 E15.98159
G1 X145.707 Y134.8 E16.0613
G1 X147.217 Y135.171 E16.08715
G1 X148.238 Y135.7 E16.10628
G1 X149.206 Y135.124 E16.12501
G1 X150.883 Y134.8 E16.15341
G1 X155.707 Y134.8 E16.23364
